Sources/FrostedUI/Resources/Icons.xcassets/volumeHigh24.imageset/volume-high-24.svg

<svg width="24" height="24" viewBox="0 0 24 24" fill="none" xmlns="http://www.w3.org/2000/svg" data-fui-icon="true">
  <path
    d="M10.3945 3.72388C11.463 2.79833 13.1248 3.55733 13.125 4.97095V19.0295C13.1246 20.4429 11.4629 21.2019 10.3945 20.2766L7.10449 17.425C6.69541 17.0705 6.17219 16.8752 5.63086 16.8752H4.125C2.88244 16.8752 1.87513 15.8678 1.875 14.6252V9.37524C1.875 8.1326 2.88236 7.12524 4.125 7.12524H5.63086C6.17214 7.12524 6.69543 6.92991 7.10449 6.57544L10.3945 3.72388ZM11.625 4.97095C11.6248 4.84267 11.474 4.77381 11.377 4.85767L8.08691 7.70923C7.40514 8.30002 6.533 8.62524 5.63086 8.62524H4.125C3.71079 8.62524 3.375 8.96103 3.375 9.37524V14.6252C3.37513 15.0393 3.71087 15.3752 4.125 15.3752H5.63086C6.53305 15.3752 7.40513 15.7004 8.08691 16.2913L11.377 19.1428C11.474 19.2265 11.6246 19.1576 11.625 19.0295V4.97095ZM18.9434 6.24731C19.2211 5.9401 19.6957 5.91598 20.0029 6.1936L19.5439 6.70142L20.0039 6.19458L20.0088 6.19946C20.0112 6.20166 20.0143 6.20425 20.0176 6.20728C20.0241 6.21336 20.0323 6.22131 20.042 6.23071C20.0619 6.25002 20.0891 6.27659 20.1211 6.30981C20.1852 6.37645 20.2719 6.47154 20.373 6.59497C20.5755 6.84199 20.838 7.20484 21.0977 7.68579C21.6188 8.65111 22.125 10.0853 22.125 12.0002C22.125 13.9152 21.6188 15.3494 21.0977 16.3147C20.8379 16.7956 20.5755 17.1585 20.373 17.4055C20.2719 17.529 20.1852 17.6241 20.1211 17.6907C20.0891 17.7239 20.0619 17.7505 20.042 17.7698C20.0323 17.7792 20.0241 17.7871 20.0176 17.7932C20.0143 17.7962 20.0112 17.7988 20.0088 17.801L20.0029 17.8069C19.6957 18.0844 19.2211 18.0602 18.9434 17.7532C18.6832 17.4652 18.688 17.0304 18.9424 16.7483L18.9971 16.6936C18.9978 16.6929 18.9991 16.6925 19 16.6917C19.0075 16.6844 19.021 16.6705 19.04 16.6506C19.0784 16.6107 19.1385 16.5452 19.2129 16.4543C19.362 16.2725 19.5684 15.9888 19.7773 15.6018C20.1936 14.8309 20.625 13.6399 20.625 12.0002C20.625 10.3606 20.1936 9.16963 19.7773 8.39868C19.5684 8.01172 19.362 7.72804 19.2129 7.54614C19.1385 7.45535 19.0784 7.38978 19.04 7.34985C19.021 7.33007 19.0075 7.31609 19 7.30884C18.9989 7.30779 18.9979 7.3067 18.9971 7.30591V7.30688C18.6899 7.0292 18.6659 6.55459 18.9434 6.24731ZM15.9414 8.50024C16.2176 8.19167 16.6913 8.16551 17 8.44165L16.5918 8.89771C16.9748 8.46967 16.9992 8.4431 17.001 8.44165V8.44263L17.002 8.4436C17.0027 8.44423 17.0041 8.44482 17.0049 8.44556C17.0068 8.44736 17.0092 8.45011 17.0117 8.45239C17.0167 8.457 17.0233 8.46233 17.0303 8.46899C17.0444 8.48251 17.0625 8.50078 17.084 8.52271C17.1271 8.56672 17.1843 8.62806 17.25 8.7063C17.3814 8.86268 17.5504 9.08876 17.7168 9.38501C18.0513 9.98068 18.375 10.8565 18.375 12.0002C18.375 13.144 18.0513 14.0198 17.7168 14.6155C17.5504 14.9117 17.3814 15.1378 17.25 15.2942C17.1842 15.3724 17.1271 15.4338 17.084 15.4778C17.0625 15.4997 17.0444 15.518 17.0303 15.5315C17.0233 15.5382 17.0167 15.5435 17.0117 15.5481C17.0092 15.5504 17.0068 15.5532 17.0049 15.5549C17.004 15.5557 17.0027 15.5562 17.002 15.5569L17.001 15.5579V15.5588C17.0005 15.5589 16.9904 15.5484 16.5 15.0002L17 15.5588C16.6914 15.8348 16.2176 15.8086 15.9414 15.5002C15.6655 15.1918 15.6911 14.7179 15.999 14.4417L16.0127 14.428C16.0311 14.4091 16.0622 14.3762 16.1016 14.3293C16.181 14.2348 16.2935 14.0844 16.4082 13.8801C16.6361 13.4742 16.875 12.8496 16.875 12.0002C16.875 11.1508 16.6361 10.5263 16.4082 10.1204C16.2935 9.91615 16.181 9.76574 16.1016 9.67114C16.0622 9.62433 16.0312 9.59138 16.0127 9.57251L15.998 9.55786H15.999L15.9453 9.50513C15.6892 9.22438 15.6826 8.78963 15.9414 8.50024Z"
    fill="currentColor"
  />
</svg>

<svg xmlns="http://www.w3.org/2000/svg" width="24" height="24" fill="none" data-fui-icon="true" viewBox="0 0 24 24"><path fill="currentColor" d="M10.395 3.724c1.068-.926 2.73-.167 2.73 1.247v14.058c0 1.414-1.662 2.173-2.73 1.248l-3.29-2.852a2.25 2.25 0 0 0-1.474-.55H4.125a2.25 2.25 0 0 1-2.25-2.25v-5.25a2.25 2.25 0 0 1 2.25-2.25h1.506a2.25 2.25 0 0 0 1.473-.55zm1.23 1.247a.15.15 0 0 0-.248-.113l-3.29 2.851a3.75 3.75 0 0 1-2.456.916H4.125a.75.75 0 0 0-.75.75v5.25c0 .414.336.75.75.75h1.506a3.75 3.75 0 0 1 2.456.916l3.29 2.852a.15.15 0 0 0 .248-.114zm7.318 1.276a.75.75 0 0 1 1.06-.053l-.46.507.46-.506.006.004.009.008.024.024.08.079c.063.066.15.162.251.285.203.247.465.61.725 1.09.52.966 1.027 2.4 1.027 4.315s-.506 3.35-1.027 4.315c-.26.48-.522.843-.725 1.09a5 5 0 0 1-.355.388l-.01.008-.005.006a.75.75 0 0 1-1.06-1.059l.054-.054.003-.002.04-.041a3 3 0 0 0 .173-.197c.149-.181.355-.465.564-.852.417-.771.848-1.962.848-3.602s-.431-2.83-.848-3.601a5.4 5.4 0 0 0-.564-.853A3 3 0 0 0 19 7.31l-.003-.003a.75.75 0 0 1-.054-1.059M15.941 8.5A.75.75 0 0 1 17 8.442l-.408.456.409-.456.001.002q0 0 .003.002l.007.006.018.017.054.054q.066.066.166.183c.131.157.3.383.467.679.334.596.658 1.472.658 2.615s-.324 2.02-.658 2.616a4.4 4.4 0 0 1-.467.678 3 3 0 0 1-.22.237l-.018.017-.007.007-.003.002h-.001v.002L16.5 15l.5.559a.75.75 0 0 1-1.001-1.117l.014-.014q.029-.029.089-.099c.079-.094.192-.245.306-.449.228-.406.467-1.03.467-1.88s-.239-1.474-.467-1.88a3 3 0 0 0-.306-.449q-.06-.07-.09-.098l-.014-.015h.001l-.054-.053a.75.75 0 0 1-.004-1.005"/></svg>
